X:1
T:O Happy Eyes
T:Edward Elgar
T:O Happy Eyes
T:Opus 18 No 1
T:(c) Wim Looyestijn - 2018. May be freely copied for non-commercial use.
T:(c) Wim Looyestijn - 2018. May be freely copied for non-commercial use.
T:(c) Wim Looyestijn - 2018. May be freely copied for non-commercial use.
T:(c) Wim Looyestijn - 2018. May be freely copied for non-commercial use.
T:(c) Wim Looyestijn - 2018. May be freely copied for non-commercial use.
T:(c) Wim Looyestijn - 2018. May be freely copied for non-commercial use.
T:(c) Wim Looyestijn - 2018. May be freely copied for non-commercial use.
T:(c) Wim Looyestijn - 2018. May be freely copied for non-commercial use.
C:Edward Elgar
Z:(c) Wim Looyestijn - 2018. May be freely copied for non-commercial use.
%%score 1 2 3 4
L:1/8
Q:1/4=120
M:3/4
K:Eb
V:1 treble nm="MusicXML Part"
V:2 treble nm="MusicXML Part"
V:3 treble-8 nm="MusicXML Part"
V:4 bass nm="MusicXML Part"
V:1
!mf!"^Allegretto" G2 | E>F GG Ac | B3 G FG | B>A AG FG | E2 z!f! G Be | d3 c =AB | %6
w: O|hap- py eyes, for you will|see my love, my|la- dy pass _ _ to-|day; What I may|not, that you might|
!>(! G3!>)! G Bc |!<(! d>!<)!B !>!d3 c | B2- B z!pp! B2 | ce c3 B | Ac A3 G | %11
w: say and ask for|an- swer dar- ling-|ly. _ O|hap- py eyes, o|hap- py eys, o|
"^poco rit."!<(! FG!<)!!f!!>(! c!>)!A!pp! G>"^a tempo"F | E2- E z!mf! G2 | E>F GG Ac | B3 G FG | %15
w: hap- py, hap- py, hap- py|eyes. _ O|hap- py flow'rs that touch her|dress, that touch her|
 B>A AG FG | E2!f! z !>!G !>!B!>!e | d3 c =AB |!>(! G3!>)! G Bc |!<(! d>B!<)! d3 c | %20
w: dress and take _ _ her|smile, o whis- per|to her all the|while some words of|love in i- dle-|
 B2- B z!pp! B2 | ce c3 B | Ac"^poco rit." A3 G |!<(! FG!<)!!f! c!>(!A!>)!!pp! G>"^a tempo"F | %24
w: ness. _ O|hap- py flow'rs, o|hap- py flow'rs, o|hap- py, hap- py, hap- py|
 E2- E z z2 | z!mf! G!<(! e!<)!!>(!d c!>)!A | G4 G2 | G2 z2 Gc | c>c =BA GF | E2 z2 z!pp! .G | %30
w: flow'rs. _|O hap- py airs that|touch her|cheek, and _|light- ly kiss and float a-|way, o|
 .A2 .A2 .G.F | .G2 .G2 GG | .G2 .G2 ^FF | G>B B2!<(! cd!<)! |!mf! .e2 .e2 dc | d>B B2!pp! cd | %36
w: hap- py, hap- py|airs that touch her|cheek and light- ly|float a- way, so _|care- less- ly as|if in play, so _|
 .e2 .e2 dc | .d2 .d2 cB | c>c cc B=A | B2 z!<(! c!<)! B!>(!c!>)! | B2 z!<(! c!<)!!>(! B!>)!c | %41
w: care- less- ly, so|care- less- ly, so|care- less- ly as if in|play. Why take ye|all, why take ye|
 B2"^poco rit.""^poco rit.""^poco rit.""^poco rit." z =A BA | A3!mf! c"^a tempo"!>(! BG!>)! | %43
w: all the joy I|seek? O hap- py,|
!p! E>F GG Ac | B3!<(! G F!<)!G | B>!>(!A AG!>)! FG | E2 z!f! G Be | d3!>(! c =A!>)!B | G3 G Bc | %49
w: hap- py eyes my love to|see. A- las! a-|las! I may _ _ not|greet, with word or|touch my la- dy|sweet; more hap- py|
!<(! d>B!<)! d3 c | B2- B z!pp! B2 | ce c3 B | Ac A3 E | E2 z2!<(! B2-!<)! |!<(! B4!<)! c2 | %55
w: eyes, say all for|me. _ O|hap- py eyes, o|hap- py, hap- py|eyes, o|_ _|
 Bd B3 A | GB G2!<(! G2!<)! |"^rall." FG cA !fermata!G>!>(!F!>)! | !fermata!E2- !wedge!E z z2 |] %59
w: hap- py eyes my|love to see, more|hap- py eyes, say all for|me. _|
V:2
!mf! E2 | C>D EE DD | E3 E DE | E>E E3 D | E4- E!f!G | G>G G^F =AG |!>(! G3!>)! G GG | %7
w: O|hap- py eyes, for you will|see my love, my|la- dy pass to-|day; _ What|I may not, that you might|say and ask for|
!<(! F>!<)!F !>!F3 F | F2- F z!pp! [DF]2 | [EG]G [EG]3 [DF] | [CE]E [CE]3 E | %11
w: an- swer dar- ling-|ly. _ O|hap- py eyes, o|hap- py eys, o|
!<(! F=E!<)!!f! F!>)!!>(!F!pp! D>D | E2- E z!mf! E2 | C>D EE DD | E3 E DE | E>E E3 D | E4- E!f!G | %17
w: hap- py, hap- py, hap- py|eyes. _ O|hap- py flow'rs that touch her|dress, that touch her|dress and take her|smile, _ o|
 G>G G^F =AG |!>(! G3!>)! G GG |!<(! F>F!<)! F3 F | F2- F z!pp! [DF]2 | [EG]G [EG]3 [DF] | %22
w: whis- per to her all the|while some words of|love in i- dle-|ness. _ O|hap- py flow'rs, o|
 [CE]E [CE]3 E |!<(! F=E!<)!!f!!>(! F!>)!F!pp! D>D | E2- E z!mf! G2 | E4 E2 | F3!>(! F ED!>)! | %27
w: hap- py flow'rs, o|hap- py, hap- py, hap- py|flow'rs. _ O|hap- py|airs that touch her|
 C2 z2 G2 | F3 =B, B,2 | C2 z2 z!pp! .E | .E2 .E2 .D.D | .E2 .G2 =AB | .c2 .c2 B=A | %33
w: cheek and|float _ a-|way, o|hap- py, hap- py|airs that touch her|cheek and light- ly|
 B>G G2!<(! B2!<)! |!mf! .B2 .B2 =AA | B>B B2!pp! B2 | .B2 .B2 =AA | .=A2 .A2 GG | G>G GG ^FD | %39
w: float a- way, so|care- less- ly as|if in play, so|care- less- ly, so|care- less- ly, so|care- less- ly as if in|
 D>E !>!E4- | E>E !>!E4- | E2 z E EE | E2 D!mf!D!>(! EE!>)! |!p! C>D EE DD | E3!<(! E D!<)!E | %45
w: play. Why take|_ ye all|_ the joy I|seek? _ O hap- py,|hap- py eyes my love to|see. A- las! a-|
 E>!>(!E EA,!>)! A,B, | G,2 z!f! E EG | G3!>(! ^F =A!>)!G | G3 G GG |!<(! F>F!<)! F3 F | %50
w: las! I may _ not _|greet, with word or|touch my la- dy|sweet; more hap- py|eyes, say all for|
 F2- F z!pp! [DF]2 | [EG]G [EG]3 [DF] | [CE]E E2 AG | FA F3 E |!<(! DF D2!<)! E2 | F2 E2 F2 | %56
w: me. _ O|hap- py eyes, say|all for me. O _|hap- py eyes my|love to see, _|_ _ _|
 G2 F2!<(! =E2!<)! |"^rall." F=E FF !fermata!D>!>)!!>(!D | !fermata!E2- !wedge!E z z2 |] %59
w: * * more|hap- py eyes, say all for|me. _|
V:3
!mf! B2 | c>B BB BB | B3 B BB | c>c c3 B | G2 z!f! B GB |!<(! B>d!<)! d4- |!>(! d>c c!>)!B GB | %7
w: O|hap- py eyes, for you will|see my love, my|la- dy pass to-|day; What I may|not, that you|_ might say and ask for|
!<(! B>!<)!d !>!f2 e2 | d2- d z z2 | z6 | z2 z2 z B |!<(! c!<)!B!f! A!>)!!>(!c!pp! B>A | %12
w: an- swer dar- ling-|ly. _||O|hap- py, hap- py, hap- py|
 G2- G z!mf! B2 | c>B BB BB | B3 B BB | c>c c3 B | G2!f! z !>!B !>!G!>!B | B>d d4- | %18
w: eyes. _ O|hap- py flow'rs that touch her|dress, that touch her|dress and take her|smile, o whis- per|to her all|
!>(! d>c c!>)!B GB |!<(! B>d!<)! f2 e2 | d2- d z z2 | z6 | z2 z2 z!pp! B | %23
w: _ the while some words of|love in i- dle-|ness. _||O|
!<(! cB!<)!!f! A!>(!c!>)!!pp! B>A | G2- G z!mf! =B2 | c2 G2 c2 | c>c =B!>(!A G!>)!F | %27
w: hap- py, hap- py, hap- py|flow'rs. _ O|hap- * py,|hap- py airs that touch her|
!<(! EG!<)! ed!>(! c!>)!G | G3 F ED | E!>!G"^marcato" c4- | c4 B2 | B4"^cresc." cd | e4 d2 | %33
w: cheek, and light- * * ly|kiss and float a-|way, and float|_ a-|way, and _|light- ly|
 d4!f! ef | (g4 f)f | (f2 d2)!pp! ef | (g4 f2) | (f4 e2) | (e4 d)c | B2 z!<(! =A!<)! B!>(!A!>)! | %40
w: kiss and _|float _ a-|way, _ and _|float, _|float, _|float _ a-|way. Why take ye|
 B2 z!<(! =A!<)! B!>(!A!>)! | B>B B4- | B>B B4- | B6- | B>B B4"^cresc." | c4 d2 | e2 z!f! B GB | %47
w: all, why take ye|all the joy|_ I seek?|_|* O hap-|* py|eyes, with word or|
!<(! B>d!<)! d4- |!>(! d>c!>)! cB GB |!<(! B>d!<)! f2 e2 | d2- d z z2 | z2 z2 z2 | z2!pp! c3 B | %53
w: touch my la-|* dy sweet; more hap- py|eyes, say all for|me. _||O _|
 Ac A3 G |!<(! FA F2!<)! E2 | DB B4- | BB =B2!<(! c_B!<)! |"^rall." AB Ac!>(! !fermata!B>!>)!A | %58
w: hap- py eyes my|love to see, _|_ o hap-|* py eyes, _ more|hap- py eyes, say all for|
 !fermata!G2- !wedge!G z z2 |] %59
w: me. _|
V:4
!mf! E,2 | A,>F, E,E, F,A, | G,3 E, A,G, | F,>F, F,2 B,,B,, | E,4- E,!f!E, | G,>B, B,=A, ^F,G, | %6
w: O|hap- py eyes, for you will|see my love, my|la- dy pass _ to-|day; _ What|I may not, that you might|
!>(! E,3!>)! E, E,E, |!<(! F,>!<)!F, !>!F,3 F, | B,2!>(! B,,4!>)! |!pp! B,,3 B,, B,2- | %10
w: say and ask for|an- swer dar- ling-|ly. O|hap- py eyes,|
 B,3 B,, B,2 |!<(! A,!<)!G,!f!!>(! F,!>)!F,!pp! B,,>B,, | E,2- E, z!mf! E,2 | A,>F, E,E, F,A, | %14
w: _ o hap-|* py, hap- py, hap- py|eyes. _ O|hap- py flow'rs that touch her|
 G,3 E, A,G, | F,>F, F,2 B,,B,, | E,4- E,!f!E, | G,>B, B,=A, ^F,G, |!>(! E,3!>)! E, E,E, | %19
w: dress, that touch her|dress and take _ her|smile, _ o|whis- per to her all the|while some words of|
!<(! F,>F,!<)! F,3 F, | B,2 B,,4 | B,,3 B,, B,2- | B,3 B,, B,2 | %23
w: love in i- dle-|ness. O|hap- py flow'rs,|_ o hap-|
!<(! A,G,!<)!!f!!>(! F,!>)!F,!pp! B,,>B,, | E,2- E, z!mf! D,2 | C,4 C,2 | D,3!>(! D, G,,!>)!G,, | %27
w: * py, hap- py, hap- py|flow'rs. _ O|hap- py|airs that touch her|
 C,2 z2 E,2 | D,4 G,,2 | C,2 z2 z!pp! .C, | .F,2 .F,2 .B,,.B,, | .E,2 z2 z2 | .=A,2 .A,2 D,D, | %33
w: cheek, and|float a-|way, o|hap- py, hap- py|airs|light- ly touch her|
 G,2 z2 z2!mf! | .C2 .C2 F,F, | B,2 z2 z2 |!pp! .C,2 .C,2 F,F, | .B,,2 .B,,2 E,E, | %38
w: cheek,|hap- py, hap- py|airs|care- less- ly, so|care- less- ly, so|
 =A,,>A,, A,,A,, D,D, | G,2 z!<(! ^F,!<)! G,!>(!F,!>)! | G,2 z!<(! ^F,!<)!!>(! G,!>)!F, | %41
w: care- less- ly as if in|play. Why take ye|all, why take ye|
 G,2 z ^F, G,F, | F,3!mf! A,!>(! G,E,!>)! |!p! A,>F, E,E, F,A, | G,3!<(! E, A,!<)!G, | %45
w: all the joy I|seek? O hap- py,|hap- py eyes my love to|see. A- las! a-|
 F,>!>(!F, B,,3!>)! B,, | E,2 z!f! E, E,E, | G,>B, B,!>(!=A, ^F,!>)!G, | E,3 E, E,E, | %49
w: las! I may not|greet, with word or|touch my la- * * dy|sweet; more hap- py|
!<(! F,>F,!<)! F,3 F, | B,2!pp! B,,4 | B,,3 B,, B,2- | B,3 B,, B,,2- | B,,3 B,, B,,2- | %54
w: eyes, say all for|me. O|hap- py, hap-|* py eyes|_ my love|
!<(! B,,3 B,,!<)! B,,2- | B,,2 C,2 D,2 | E,2 D,2!<(! C,2!<)! | %57
w: _ to see,|_ _ _|* * more|
"^rall." F,F, F,F,!>(! !fermata!B,,>B,,!>)! | !fermata![E,,E,]2- !wedge![E,,E,] z z2 |] %59
w: hap- py eyes, say all for|me. _|

